X:244
T:Man of Aran
R:reel
C:Darach De Brun (-2012)
D:Oisin
D:Dervish: The Boys of Sligo
Z:id:hn-reel-244
M:C|
K:Bm
FBfe dB~B2|Aced cA~A2|FBfe dB~B2|FB~B2 cB~B2|
FBfe dB~B2|ce~e2 ce~e2|~f3e dB~B2|cedc dB~B2:|
|:df~f2 df~f2|ce~e2 ce~e2|df~f2 df~f2|c2ec dB~B2|
dfaf dfaf|cege cege|dfeg fB~B2|~f3e fedc:|
P:Version 2:
FBfe dB~B2|~e3d cA~A2|FBfe dB~B2|cedc dB~B2|
~f3e dB~B2|~e3d cA~A2|(3Bcd ce d2 (3efg|~f3e dB~B2||
~f3e dB~B2|Aced cA~A2|FBfe dB~B2|cedc dB~B2|
fBeB dB~B2|~e3d cA~A2|(3Bcd ce d2 (3efg|~f3e dB~B2||
|:defd Adfd|cdec fcec|dfAD FAdB|ce~e2 dB~B2|
d2fd Adfd|cdec fcec|(3Bcd ce d2 (3efg|~f3e dB~B2:|

